src/images/logo.svg

<svg clip-rule="evenodd" fill-rule="evenodd" stroke-linejoin="round" stroke-miterlimit="2" viewBox="0 0 119 28" xmlns="http://www.w3.org/2000/svg"><g fill="#394149" fill-rule="nonzero" transform="translate(-2.4711 -2.42882)"><path d="m36.87 10.07h3v12.13h-3zm4.19 7.55c0-3 1.84-4.79 4.68-4.79s4.68 1.79 4.68 4.79-1.8 4.8-4.68 4.8-4.68-1.75-4.68-4.8zm6.35 0c0-1.65-.65-2.62-1.67-2.62s-1.66 1-1.66 2.62.63 2.6 1.66 2.6 1.67-.92 1.67-2.59zm4.14 5.17h2.88c.137.305.369.557.661.719s.628.226.959.181c1.14 0 1.74-.62 1.74-1.52v-1.68h-.06c-.239.515-.627.946-1.113 1.239-.487.292-1.05.432-1.617.401-2.19 0-3.64-1.67-3.64-4.54s1.38-4.68 3.68-4.68c.585-.023 1.162.133 1.656.448.493.315.878.772 1.104 1.312v-1.67h3v9.1c0 2.19-1.93 3.55-4.78 3.55-2.65 0-4.3-1.19-4.47-2.85zm6.25-5.18c0-1.46-.67-2.38-1.73-2.38s-1.71.91-1.71 2.38.64 2.3 1.71 2.3 1.73-.81 1.73-2.29zm4.13 0c0-3 1.84-4.79 4.68-4.79s4.69 1.79 4.69 4.79-1.8 4.8-4.69 4.8-4.68-1.74-4.68-4.79zm6.35 0c0-1.65-.65-2.62-1.67-2.62s-1.61 1.01-1.61 2.64.63 2.6 1.65 2.6 1.63-.93 1.63-2.6zm4.16-6.79c-.008-.303.074-.601.236-.857s.397-.459.674-.581c.277-.123.584-.161.882-.109.299.052.575.192.794.401s.371.479.437.775c.066.295.042.604-.068.886-.11.283-.301.526-.549.7-.249.173-.543.269-.846.275-.201.014-.402-.014-.592-.082-.189-.068-.363-.174-.509-.312-.147-.138-.263-.305-.342-.49s-.119-.385-.117-.586zm0 2.2h3v9.18h-3zm13.89 4.59c0 3-1.33 4.71-3.61 4.71-.585.038-1.167-.105-1.667-.409-.501-.304-.897-.755-1.133-1.291h-.06v4.52h-3v-12.14h3v1.64h.06c.225-.545.613-1.007 1.111-1.324.497-.316 1.08-.472 1.669-.446 2.3.04 3.67 1.76 3.67 4.76zm-3 0c0-1.46-.67-2.39-1.72-2.39s-1.72.94-1.73 2.39.68 2.38 1.73 2.38 1.72-.91 1.72-2.36zm8.15-4.8c2.49 0 4 1.18 4.07 3.07h-2.73c0-.65-.54-1.06-1.37-1.06s-1.2.32-1.2.79.33.62 1 .76l1.92.39c1.83.39 2.61 1.13 2.61 2.52 0 1.9-1.73 3.12-4.28 3.12s-4.22-1.22-4.35-3.09h2.89c.09.68.63 1.08 1.51 1.08s1.28-.29 1.28-.77-.28-.58-1-.73l-1.73-.37c-1.79-.37-2.73-1.32-2.73-2.72.02-1.8 1.63-2.97 4.11-2.97zm14.31 9.37h-2.89v-1.71h-.06c-.159.574-.509 1.077-.993 1.424s-1.072.519-1.667.486c-.456.026-.912-.046-1.337-.212-.426-.165-.811-.42-1.129-.747-.319-.327-.564-.719-.718-1.149-.154-.429-.214-.887-.176-1.342v-5.93h3v5.24c0 1.09.56 1.67 1.49 1.67.218 0 .434-.046.633-.135.198-.09.376-.221.52-.385.143-.164.251-.357.314-.565.063-.209.082-.429.053-.645v-5.18h3zm1.45-9.18h2.9v1.77h.06c.159-.566.502-1.064.974-1.415s1.048-.536 1.636-.525c.599-.048 1.193.131 1.666.502.472.37.788.905.884 1.498h.06c.181-.599.557-1.121 1.068-1.483.51-.362 1.127-.544 1.752-.517.408-.014.814.059 1.192.212.379.154.72.385 1.003.679.283.295.501.645.64 1.029.138.384.195.793.165 1.2v6.25h-3v-5.45c0-1-.45-1.46-1.29-1.46-.187-.002-.373.037-.544.113s-.324.188-.448.329c-.124.14-.217.305-.272.484s-.07.368-.046.554v5.43h-2.85v-5.49c0-.92-.45-1.42-1.27-1.42-.189 0-.377.04-.549.118-.173.078-.328.191-.453.333-.126.142-.22.308-.277.489-.056.181-.074.372-.051.56v5.41h-3z"/><path d="m28.48 10.62c-.509-1.164-1.182-2.248-2-3.22-1.208-1.48-2.717-2.687-4.425-3.541-1.709-.855-3.579-1.338-5.488-1.418s-3.813.245-5.587.954-3.378 1.786-4.706 3.159c-1.328 1.374-2.35 3.013-2.999 4.81s-.909 3.711-.765 5.616.69 3.758 1.602 5.436c.911 1.679 2.168 3.146 3.688 4.304.975.758 2.052 1.374 3.2 1.83 1.609.659 3.331.999 5.07 1 3.589-.008 7.029-1.439 9.566-3.979 2.536-2.54 3.961-5.982 3.964-9.571.003-1.851-.379-3.683-1.12-5.38zm-12.42-5.43c1.562 0 3.104.341 4.52 1-.345.149-.708.253-1.08.31-1.223.177-2.357.745-3.231 1.619s-1.442 2.008-1.619 3.231c-.078.686-.39 1.324-.883 1.807-.494.483-1.139.781-1.827.843-1.223.177-2.357.745-3.231 1.619s-1.442 2.008-1.619 3.231c-.06.652-.338 1.266-.79 1.74-.779-1.647-1.129-3.464-1.018-5.282.112-1.819.682-3.579 1.657-5.118s2.324-2.806 3.92-3.684c1.597-.878 3.389-1.337 5.211-1.336zm-8.27 17.81c.12-.11.24-.21.36-.33.89-.862 1.461-2.001 1.62-3.23.065-.691.373-1.336.87-1.82.478-.498 1.122-.804 1.81-.86 1.223-.177 2.357-.745 3.231-1.619s1.442-2.008 1.619-3.231c.043-.722.353-1.403.87-1.91.49-.488 1.14-.783 1.83-.83 1.124-.155 2.172-.654 3-1.43.943.782 1.741 1.723 2.36 2.78-.038.051-.082.098-.13.14-.477.502-1.12.815-1.81.88-1.225.174-2.36.741-3.234 1.616-.875.874-1.442 2.009-1.616 3.234-.07.688-.377 1.331-.867 1.82-.49.488-1.134.792-1.823.86-1.227.176-2.364.743-3.244 1.616-.879.874-1.453 2.008-1.636 3.234-.054.489-.222.958-.49 1.37-1.026-.609-1.945-1.383-2.72-2.29zm8.27 3.86c-1.015.001-2.025-.14-3-.42.334-.622.551-1.3.64-2 .07-.687.375-1.329.863-1.817s1.13-.793 1.817-.863c1.225-.175 2.361-.742 3.237-1.616.876-.875 1.445-2.009 1.623-3.234.07-.687.375-1.329.863-1.817s1.13-.793 1.817-.863c.922-.12 1.801-.463 2.56-1 .422 1.598.472 3.271.146 4.891-.325 1.62-1.018 3.145-2.024 4.456s-2.299 2.374-3.78 3.108c-1.48.734-3.109 1.119-4.762 1.125z"/></g></svg>

<?xml version="1.0" encoding="UTF-8" standalone="no"?>
<!DOCTYPE svg PUBLIC "-//W3C//DTD SVG 1.1//EN" "http://www.w3.org/Graphics/SVG/1.1/DTD/svg11.dtd">
<svg width="100%" height="100%" viewBox="0 0 119 28" version="1.1" xmlns="http://www.w3.org/2000/svg" xmlns:xlink="http://www.w3.org/1999/xlink" xml:space="preserve" xmlns:serif="http://www.serif.com/" style="fill-rule:evenodd;clip-rule:evenodd;stroke-linejoin:round;stroke-miterlimit:2;">
    <g transform="matrix(1,0,0,1,-2.4711,-2.42882)">
        <path d="M36.87,10.07L39.87,10.07L39.87,22.2L36.87,22.2L36.87,10.07ZM41.06,17.62C41.06,14.62 42.9,12.83 45.74,12.83C48.58,12.83 50.42,14.62 50.42,17.62C50.42,20.62 48.62,22.42 45.74,22.42C42.86,22.42 41.06,20.67 41.06,17.62ZM47.41,17.62C47.41,15.97 46.76,15 45.74,15C44.72,15 44.08,16 44.08,17.62C44.08,19.24 44.71,20.22 45.74,20.22C46.77,20.22 47.41,19.3 47.41,17.63L47.41,17.62ZM51.55,22.79L54.43,22.79C54.567,23.095 54.799,23.347 55.091,23.509C55.383,23.671 55.719,23.735 56.05,23.69C57.19,23.69 57.79,23.07 57.79,22.17L57.79,20.49L57.73,20.49C57.491,21.005 57.103,21.436 56.617,21.729C56.13,22.021 55.567,22.161 55,22.13C52.81,22.13 51.36,20.46 51.36,17.59C51.36,14.72 52.74,12.91 55.04,12.91C55.625,12.887 56.202,13.043 56.696,13.358C57.189,13.673 57.574,14.13 57.8,14.67L57.8,13L60.8,13L60.8,22.1C60.8,24.29 58.87,25.65 56.02,25.65C53.37,25.65 51.72,24.46 51.55,22.8L51.55,22.79ZM57.8,17.61C57.8,16.15 57.13,15.23 56.07,15.23C55.01,15.23 54.36,16.14 54.36,17.61C54.36,19.08 55,19.91 56.07,19.91C57.14,19.91 57.8,19.1 57.8,17.62L57.8,17.61ZM61.93,17.61C61.93,14.61 63.77,12.82 66.61,12.82C69.45,12.82 71.3,14.61 71.3,17.61C71.3,20.61 69.5,22.41 66.61,22.41C63.72,22.41 61.93,20.67 61.93,17.62L61.93,17.61ZM68.28,17.61C68.28,15.96 67.63,14.99 66.61,14.99C65.59,14.99 65,16 65,17.63C65,19.26 65.63,20.23 66.65,20.23C67.67,20.23 68.28,19.3 68.28,17.63L68.28,17.61ZM72.44,10.82C72.432,10.517 72.514,10.219 72.676,9.963C72.838,9.707 73.073,9.504 73.35,9.382C73.627,9.259 73.934,9.221 74.232,9.273C74.531,9.325 74.807,9.465 75.026,9.674C75.245,9.883 75.397,10.153 75.463,10.449C75.529,10.744 75.505,11.053 75.395,11.335C75.285,11.618 75.094,11.861 74.846,12.035C74.597,12.208 74.303,12.304 74,12.31C73.799,12.324 73.598,12.296 73.408,12.228C73.219,12.16 73.045,12.054 72.899,11.916C72.752,11.778 72.636,11.611 72.557,11.426C72.478,11.241 72.438,11.041 72.44,10.84L72.44,10.82ZM72.44,13.02L75.44,13.02L75.44,22.2L72.44,22.2L72.44,13.02ZM86.33,17.61C86.33,20.61 85,22.32 82.72,22.32C82.135,22.358 81.553,22.215 81.053,21.911C80.552,21.607 80.156,21.156 79.92,20.62L79.86,20.62L79.86,25.14L76.86,25.14L76.86,13L79.86,13L79.86,14.64L79.92,14.64C80.145,14.095 80.533,13.633 81.031,13.316C81.528,13 82.111,12.844 82.7,12.87C85,12.91 86.37,14.63 86.37,17.63L86.33,17.61ZM83.33,17.61C83.33,16.15 82.66,15.22 81.61,15.22C80.56,15.22 79.89,16.16 79.88,17.61C79.87,19.06 80.56,19.99 81.61,19.99C82.66,19.99 83.33,19.08 83.33,17.63L83.33,17.61ZM91.48,12.81C93.97,12.81 95.48,13.99 95.55,15.88L92.82,15.88C92.82,15.23 92.28,14.82 91.45,14.82C90.62,14.82 90.25,15.14 90.25,15.61C90.25,16.08 90.58,16.23 91.25,16.37L93.17,16.76C95,17.15 95.78,17.89 95.78,19.28C95.78,21.18 94.05,22.4 91.5,22.4C88.95,22.4 87.28,21.18 87.15,19.31L90.04,19.31C90.13,19.99 90.67,20.39 91.55,20.39C92.43,20.39 92.83,20.1 92.83,19.62C92.83,19.14 92.55,19.04 91.83,18.89L90.1,18.52C88.31,18.15 87.37,17.2 87.37,15.8C87.39,14 89,12.83 91.48,12.83L91.48,12.81ZM105.79,22.18L102.9,22.18L102.9,20.47L102.84,20.47C102.681,21.044 102.331,21.547 101.847,21.894C101.363,22.241 100.775,22.413 100.18,22.38C99.724,22.406 99.268,22.334 98.843,22.168C98.417,22.003 98.032,21.748 97.714,21.421C97.395,21.094 97.15,20.702 96.996,20.272C96.842,19.843 96.782,19.385 96.82,18.93L96.82,13L99.82,13L99.82,18.24C99.82,19.33 100.38,19.91 101.31,19.91C101.528,19.91 101.744,19.864 101.943,19.775C102.141,19.685 102.319,19.554 102.463,19.39C102.606,19.226 102.714,19.033 102.777,18.825C102.84,18.616 102.859,18.396 102.83,18.18L102.83,13L105.83,13L105.79,22.18ZM107.24,13L110.14,13L110.14,14.77L110.2,14.77C110.359,14.204 110.702,13.706 111.174,13.355C111.646,13.004 112.222,12.819 112.81,12.83C113.409,12.782 114.003,12.961 114.476,13.332C114.948,13.702 115.264,14.237 115.36,14.83L115.42,14.83C115.601,14.231 115.977,13.709 116.488,13.347C116.998,12.985 117.615,12.803 118.24,12.83C118.648,12.816 119.054,12.889 119.432,13.042C119.811,13.196 120.152,13.427 120.435,13.721C120.718,14.016 120.936,14.366 121.075,14.75C121.213,15.134 121.27,15.543 121.24,15.95L121.24,22.2L118.24,22.2L118.24,16.75C118.24,15.75 117.79,15.29 116.95,15.29C116.763,15.288 116.577,15.327 116.406,15.403C116.235,15.479 116.082,15.591 115.958,15.732C115.834,15.872 115.741,16.037 115.686,16.216C115.631,16.395 115.616,16.584 115.64,16.77L115.64,22.2L112.79,22.2L112.79,16.71C112.79,15.79 112.34,15.29 111.52,15.29C111.331,15.29 111.143,15.33 110.971,15.408C110.798,15.486 110.643,15.599 110.518,15.741C110.392,15.883 110.298,16.049 110.241,16.23C110.185,16.411 110.167,16.602 110.19,16.79L110.19,22.2L107.19,22.2L107.24,13Z" style="fill:rgb(57,65,73);fill-rule:nonzero;"/>
    </g>
    <g transform="matrix(1,0,0,1,-2.4711,-2.42882)">
        <path d="M28.48,10.62C27.971,9.456 27.298,8.372 26.48,7.4C25.272,5.92 23.763,4.713 22.055,3.859C20.346,3.004 18.476,2.521 16.567,2.441C14.658,2.361 12.754,2.686 10.98,3.395C9.206,4.104 7.602,5.181 6.274,6.554C4.946,7.928 3.924,9.567 3.275,11.364C2.626,13.161 2.366,15.075 2.51,16.98C2.654,18.885 3.2,20.738 4.112,22.416C5.023,24.095 6.28,25.562 7.8,26.72C8.775,27.478 9.852,28.094 11,28.55C12.609,29.209 14.331,29.549 16.07,29.55C19.659,29.542 23.099,28.111 25.636,25.571C28.172,23.031 29.597,19.589 29.6,16C29.603,14.149 29.221,12.317 28.48,10.62ZM16.06,5.19C17.622,5.19 19.164,5.531 20.58,6.19C20.235,6.339 19.872,6.443 19.5,6.5C18.277,6.677 17.143,7.245 16.269,8.119C15.395,8.993 14.827,10.127 14.65,11.35C14.572,12.036 14.26,12.674 13.767,13.157C13.273,13.64 12.628,13.938 11.94,14C10.717,14.177 9.583,14.745 8.709,15.619C7.835,16.493 7.267,17.627 7.09,18.85C7.03,19.502 6.752,20.116 6.3,20.59C5.521,18.943 5.171,17.126 5.282,15.308C5.394,13.489 5.964,11.729 6.939,10.19C7.914,8.651 9.263,7.384 10.859,6.506C12.456,5.628 14.248,5.169 16.07,5.17L16.06,5.19ZM7.79,23C7.91,22.89 8.03,22.79 8.15,22.67C9.04,21.808 9.611,20.669 9.77,19.44C9.835,18.749 10.143,18.104 10.64,17.62C11.118,17.122 11.762,16.816 12.45,16.76C13.673,16.583 14.807,16.015 15.681,15.141C16.555,14.267 17.123,13.133 17.3,11.91C17.343,11.188 17.653,10.507 18.17,10C18.66,9.512 19.31,9.217 20,9.17C21.124,9.015 22.172,8.516 23,7.74C23.943,8.522 24.741,9.463 25.36,10.52C25.322,10.571 25.278,10.618 25.23,10.66C24.753,11.162 24.11,11.475 23.42,11.54C22.195,11.714 21.06,12.281 20.186,13.156C19.311,14.03 18.744,15.165 18.57,16.39C18.5,17.078 18.193,17.721 17.703,18.21C17.213,18.698 16.569,19.002 15.88,19.07C14.653,19.246 13.516,19.813 12.636,20.686C11.757,21.56 11.183,22.694 11,23.92C10.946,24.409 10.778,24.878 10.51,25.29C9.484,24.681 8.565,23.907 7.79,23ZM16.06,26.86C15.045,26.861 14.035,26.72 13.06,26.44C13.394,25.818 13.611,25.14 13.7,24.44C13.77,23.753 14.075,23.111 14.563,22.623C15.051,22.135 15.693,21.83 16.38,21.76C17.605,21.585 18.741,21.018 19.617,20.144C20.493,19.269 21.062,18.135 21.24,16.91C21.31,16.223 21.615,15.581 22.103,15.093C22.591,14.605 23.233,14.3 23.92,14.23C24.842,14.11 25.721,13.767 26.48,13.23C26.902,14.828 26.952,16.501 26.626,18.121C26.301,19.741 25.608,21.266 24.602,22.577C23.596,23.888 22.303,24.951 20.822,25.685C19.342,26.419 17.713,26.804 16.06,26.81L16.06,26.86Z" style="fill:rgb(57,65,73);fill-rule:nonzero;"/>
    </g>
</svg>
